assets/delete-icon.svg

<svg xmlns="http://www.w3.org/2000/svg"  viewBox="0 0 24 24" width="24px" height="24px"><path d="M 10 2 L 9 3 L 4 3 L 4 5 L 5 5 L 5 20 C 5 20.522222 5.1913289 21.05461 5.5683594 21.431641 C 5.9453899 21.808671 6.4777778 22 7 22 L 17 22 C 17.522222 22 18.05461 21.808671 18.431641 21.431641 C 18.808671 21.05461 19 20.522222 19 20 L 19 5 L 20 5 L 20 3 L 15 3 L 14 2 L 10 2 z M 7 5 L 17 5 L 17 20 L 7 20 L 7 5 z M 9 7 L 9 18 L 11 18 L 11 7 L 9 7 z M 13 7 L 13 18 L 15 18 L 15 7 L 13 7 z"/></svg>

<svg xmlns="http://www.w3.org/2000/svg" xmlns:xlink="http://www.w3.org/1999/xlink" viewBox="0,0,256,256" width="24px" height="24px"><g fill="#ffffff" fill-rule="nonzero" stroke="none" stroke-width="1" stroke-linecap="butt" stroke-linejoin="miter" stroke-miterlimit="10" stroke-dasharray="" stroke-dashoffset="0" font-family="none" font-weight="none" font-size="none" text-anchor="none" style="mix-blend-mode: normal"><g transform="scale(10.66667,10.66667)"><path d="M10,2l-1,1h-5v2h1v15c0,0.52222 0.19133,1.05461 0.56836,1.43164c0.37703,0.37703 0.90942,0.56836 1.43164,0.56836h10c0.52222,0 1.05461,-0.19133 1.43164,-0.56836c0.37703,-0.37703 0.56836,-0.90942 0.56836,-1.43164v-15h1v-2h-5l-1,-1zM7,5h10v15h-10zM9,7v11h2v-11zM13,7v11h2v-11z"></path></g></g></svg>
